X: 2369
M: C
L: 1/8
K: G
uD>uB, |\
vG,>vB,uD>uG B>GD>B, | C>EA>B c>BA>c |\
{a}g>fg>e (3ded (3cBA | G>Bd>B g2 ::\
(uB>c) |\
d>g{ag}f>g e>g({ag}f>g) | b>ga>f g>ed>B |
(3cde (3ABc (3Bcd G>B | (3AGF (3GFE D2 (B>c) |\
d>g({ag}f>g) e>g({ag}f>g) | {a}b>ga>f g>ed>B |\
c>de>f {a}g>fg>e | d>Bc>A G2 :|


